SVG/ico__rs_facebook.svg

<svg xmlns="http://www.w3.org/2000/svg" viewBox="0 0 240 240">
    <path d="M200.01,120.01c0-44.19-35.82-80.01-80.01-80.01S39.99,75.82,39.99,120.01c0,37.52,25.83,69.01,60.68,77.65v-53.2h-16.5v-24.45h16.5v-10.54c0-27.23,12.32-39.86,39.06-39.86,5.07,0,13.82.99,17.39,1.99v22.16c-1.89-.2-5.17-.3-9.24-.3-13.12,0-18.19,4.97-18.19,17.89v8.65h26.13l-4.49,24.45h-21.64v54.97c39.62-4.78,70.32-38.52,70.32-79.42"/>
</svg>

<svg width="240" height="240" viewBox="0 0 240 240" fill="none" xmlns="http://www.w3.org/2000/svg">
<path d="M200.02 120.01C200.02 75.82 164.2 40 120.01 40C75.82 40 40 75.82 40 120.01C40 157.53 65.83 189.02 100.68 197.66V144.46H84.18V120.01H100.68V109.47C100.68 82.24 113 69.61 139.74 69.61C144.81 69.61 153.56 70.6 157.13 71.6V93.76C155.24 93.56 151.96 93.46 147.89 93.46C134.77 93.46 129.7 98.43 129.7 111.35V120H155.83L151.34 144.45H129.7V199.42C169.32 194.64 200.02 160.9 200.02 120" fill="black"/>
</svg>
